X:1
T:Title
%%score { ( 1 3 ) | ( 2 4 ) }
L:1/8
Q:1/4=100
M:4/4
K:G
V:1 treble nm="Grand Piano"
V:3 treble 
V:2 bass 
V:4 bass 
V:1
 B2 c>B [Fd]2 [FA]>[Ac] | B4 G4 | B2 F>G [EA]2 [EG]>[CE] | [B,D]6 z2 | G2 F>G A2 G>[FA] | %5
w: John~R.~Sweney * * * * *|||||
 [GB]4 [=Fd]4 | [Ed]2 [Ec]>E F2 G>A | [B,DG]6 z2 | [FA]2 [FA]>[FA] [DF]2 [FA]>[Fd] | [Gd]4 [G^c]4 | %10
w: |||||
 [E^c]2 [^CE]>[DF] [EG]2 [Gc]>[=CGB] | [=FB]4 [^FA]4 | [FA]2 [=F^G]>[^FA] [Fd]2 [G^c]>[Ad] | %13
w: |||
 e4 B4 | ^c2 B>A [EG]2 [^CE]>[CA] | z4 c4 | B2 c>B [Fd]2 [FA]>[Ac] | B4 G4 | %18
w: |||||
 B2 F>G [EA]2 [EG]>[CE] | [B,D]6 z2 | G2 F>G A2 G>[FA] | [GB]4 [=Fd]4 | [Ed]2 [Ec]>E F2 G>A | %23
w: |||||
[M:8/4] [B,DG]8 z8 |] %24
w: |
V:2
 [G,D]2 [G,E]>[G,D] [D,A,]2 [D,D]>[D,D] | [G,DG]4 [G,B,D]4 | %2
 [G,D]2 [G,A,D]>[G,B,D][K:bass] [C,C]2 [C,C]>[C,G,] | [G,,G,]6 z2 | %4
 [G,B,D]2 [G,A,D]>[G,B,D] [D,CD]2 [D,B,D]>[D,D] | [G,D]4 [B,,G,]4 | %6
 [C,G,]2 [C,G,]>[C,C] [D,A,D]2 [D,B,D]>[D,CD] | G,,6 z2 | [D,D]2 [D,D]>[D,D] [D,A,]2 [D,D]>[D,A,] | %9
 [E,A,]4 [E,A,]4 | [A,,A,]2 [A,,A,]>[A,,A,] [A,,A,]2 [A,,A,]>A,, | [D,D]8 | %12
 [D,D]2 [D,D]>[D,D] [D,A,]2 [E,A,]>[F,A,] | [G,B,G]4 [G,DG]4 | %14
 [A,G]2 [A,G]>[A,F][K:bass] [A,,A,]2 [A,,A,]>[A,,G,] | D,4- [D,A,]4 | %16
 [G,D]2 [G,E]>[G,D] [D,A,]2 [D,D]>[D,D] | [G,DG]4 [G,B,D]4 | %18
 [G,D]2 [G,A,D]>[G,B,D][K:bass] [C,C]2 [C,C]>[C,G,] | [G,,G,]6 z2 | %20
 [G,B,D]2 [G,A,D]>[G,B,D] [D,CD]2 [D,B,D]>[D,D] | [G,D]4 [B,,G,]4 | %22
 [C,G,]2 [C,G,]>[C,C] [D,A,D]2 [D,B,D]>[D,CD] |[M:8/4] G,,8 z8 |] %24
V:3
 x8 | x8 | x8 | x8 | x8 | x8 | x8 | x8 | x8 | x8 | x8 | x8 | x8 | x8 | x8 | D8 | x8 | x8 | x8 | %19
 x8 | x8 | x8 | x8 |[M:8/4] x16 |] %24
V:4
 x8 | x8 | x4[K:bass] x4 | x8 | x8 | x8 | x8 | x8 | x8 | x8 | x8 | x8 | x8 | x8 | x4[K:bass] x4 | %15
 F,4 z4 | x8 | x8 | x4[K:bass] x4 | x8 | x8 | x8 | x8 |[M:8/4] x16 |] %24

